modules/hawcons-filled/icons/icon-24-cloud-fog.svg

<?xml version="1.0" encoding="UTF-8" standalone="no"?>
<svg width="32px" height="32px" viewBox="0 0 32 32" version="1.1" xmlns="http://www.w3.org/2000/svg" xmlns:xlink="http://www.w3.org/1999/xlink" xmlns:sketch="http://www.bohemiancoding.com/sketch/ns">
    <!-- Generator: Sketch 3.0.3 (7891) - http://www.bohemiancoding.com/sketch -->
    <title>icon 24 cloud fog</title>
    <desc>Created with Sketch.</desc>
    <defs></defs>
    <g id="Page-1" stroke="none" stroke-width="1" fill="none" fill-rule="evenodd" sketch:type="MSPage">
        <g id="icon-24-cloud-fog" sketch:type="MSArtboardGroup" fill="#929292">
            <path d="M29.8996668,20 C29.9654594,19.6767757 30,19.3423353 30,19 L3,19 C3,19.3424658 3.03433671,19.6768901 3.09977122,20 L29.8996668,20 L29.8996668,20 Z M29.5829563,21 C29.426753,21.356898 29.2300536,21.6921867 28.9986668,22 L28.9986668,22 L4,22 L4,22.0029306 C3.76820444,21.6943993 3.57131711,21.3581364 3.41513574,21 L29.5829563,21 L29.5829563,21 Z M17.8989829,9 C18.1575674,9.25339253 18.3965787,9.52668437 18.6135384,9.81739735 C19.4525719,9.29909701 20.441357,9 21.5,9 C22.6774084,9 23.7684055,9.36997069 24.6630793,10 L24.6630793,10 L7.25468917,10 C7.50538699,9.64058822 7.78894826,9.30580294 8.10101712,9 L17.8989829,9 L17.8989829,9 L17.8989829,9 Z M16.6075868,8 C15.554044,7.36518016 14.3196682,7 13,7 C11.6803318,7 10.445956,7.36518016 9.39241323,8 L16.6075868,8 L16.6075868,8 L16.6075868,8 Z M25.742838,11 C25.9964662,11.3071077 26.2173943,11.6422183 26.4002905,12 L26.4002905,12 L6.28987864,12 C6.39262951,11.6547518 6.52129914,11.3206664 6.67363109,11 L25.742838,11 L25.742838,11 L25.742838,11 Z M26.7929675,13 C26.8841207,13.3222824 26.9466322,13.6565902 26.9775785,14 L26.9775785,14 L6,14 C6,13.6604787 6.02417196,13.326603 6.07088885,13 L26.7929675,13 L26.7929675,13 L26.7929675,13 Z M28,14.9975864 C28.3797114,15.2825337 28.717374,15.6203048 29.0022,16 L29.0022,16 L4.00133323,16 C4.28586845,15.6214836 4.62285631,15.2845141 5.00149591,15 L28,15 L28,14.9975864 L28,14.9975864 L28,14.9975864 Z M29.5848643,17 C29.7233253,17.3175024 29.8297934,17.6521963 29.9002288,18 L29.9002288,18 L3.10033317,18 C3.1711057,17.6523103 3.27804031,17.317599 3.4170437,17 L29.5848643,17 L29.5848643,17 L29.5848643,17 Z M27.9985041,23 C27.163232,23.627633 26.1252678,24 25.0005601,24 L7.99943992,24 C6.87136383,24 5.83212269,23.6279105 4.99678642,23 L27.9985041,23 L27.9985041,23 L27.9985041,23 Z" id="cloud-fog" sketch:type="MSShapeGroup"></path>
        </g>
    </g>
</svg>

<svg width="32" height="32" viewBox="0 0 32 32" xmlns="http://www.w3.org/2000/svg"><path d="M29.9 20c.065-.323.1-.658.1-1H3c0 .342.034.677.1 1h26.8zm-.317 1a5.003 5.003 0 0 1-.584 1H4v.003A4.992 4.992 0 0 1 3.415 21h26.168zM17.899 9c.259.253.498.527.715.817A5.474 5.474 0 0 1 21.5 9c1.177 0 2.268.37 3.163 1H7.255c.25-.36.534-.694.846-1h9.798zm-1.291-1A6.967 6.967 0 0 0 13 7c-1.32 0-2.554.365-3.608 1h7.216zm9.135 3c.253.307.474.642.657 1H6.29c.103-.345.231-.68.384-1h19.069zm1.05 2c.091.322.154.657.185 1H6c0-.34.024-.673.07-1h20.723zM28 14.998c.38.285.717.622 1.002 1.002h-25a5.038 5.038 0 0 1 1-1H28v-.002zM29.585 17c.138.318.245.652.315 1H3.1c.071-.348.178-.682.317-1h26.168zm-1.586 6c-.836.628-1.874 1-2.998 1H7.999a4.978 4.978 0 0 1-3.002-1h23.002z" fill="#929292" fill-rule="evenodd"/></svg>
